src/icons/typescript_def.svg

<svg width="16" height="16" viewBox="0 0 16 16" fill="none" xmlns="http://www.w3.org/2000/svg">
<path d="M13.5 8C13.5 11.0376 11.0376 13.5 8 13.5C4.96243 13.5 2.5 11.0376 2.5 8C2.5 4.96243 4.96243 2.5 8 2.5C11.0376 2.5 13.5 4.96243 13.5 8Z" stroke="#3965BD"/>
<path fill-rule="evenodd" clip-rule="evenodd" d="M8.86995 10.655C8.99395 10.7203 9.15228 10.7773 9.34495 10.826C9.53828 10.876 9.74062 10.9007 9.95195 10.9C10.1739 10.9 10.3433 10.8603 10.4599 10.781C10.5129 10.7492 10.5569 10.7044 10.5878 10.6509C10.6186 10.5973 10.6353 10.5368 10.6362 10.475C10.6371 10.4132 10.6222 10.3522 10.5929 10.2978C10.5637 10.2434 10.521 10.1973 10.4689 10.164C10.3576 10.08 10.1716 9.998 9.91095 9.918C9.55295 9.79933 9.26428 9.64433 9.04495 9.453C8.93951 9.36582 8.85508 9.256 8.79795 9.13169C8.74081 9.00738 8.71244 8.87179 8.71495 8.735C8.71495 8.39766 8.86162 8.11533 9.15495 7.888C9.44828 7.66 9.84962 7.54566 10.3589 7.545C10.6029 7.545 10.8163 7.565 10.9989 7.605C11.1803 7.645 11.3359 7.692 11.4659 7.746L11.2459 8.468C11.1294 8.41815 11.0098 8.37573 10.8879 8.341C10.7102 8.29371 10.5268 8.27117 10.3429 8.274C10.1303 8.274 9.97295 8.31233 9.87095 8.389C9.76762 8.46633 9.71595 8.557 9.71595 8.661C9.71595 8.785 9.77828 8.884 9.90295 8.958C10.0276 9.032 10.2309 9.11867 10.5129 9.218C10.8983 9.348 11.1819 9.508 11.3639 9.698C11.5446 9.88962 11.6423 10.1448 11.6359 10.408C11.6359 10.7407 11.4936 11.0287 11.2089 11.272C10.9249 11.5147 10.4869 11.636 9.89495 11.636C9.64562 11.636 9.40962 11.61 9.18695 11.558C9.00842 11.5201 8.83419 11.4641 8.66695 11.391L8.86995 10.655ZM6.53995 11.636V8.237H5.27295V7.545H8.66695V8.237H7.40195V11.637L6.53995 11.636Z" fill="#82AAFF"/>
</svg>

<svg xmlns="http://www.w3.org/2000/svg" width="16" height="16" fill="none"><path fill="#3965BD" d="M13.5 4A1.5 1.5 0 0 0 12 2.5v1a.5.5 0 0 1 .5.5zM12 2.5H4v1h8zm-8 0A1.5 1.5 0 0 0 2.5 4h1a.5.5 0 0 1 .5-.5zM2.5 4v8h1V4zm0 8A1.5 1.5 0 0 0 4 13.5v-1a.5.5 0 0 1-.5-.5zM4 13.5h8v-1H4zm8 0a1.5 1.5 0 0 0 1.5-1.5h-1a.5.5 0 0 1-.5.5zm1.5-1.5V4h-1v8z"/><path fill="#82AAFF" fill-rule="evenodd" d="M8.87 10.655q.186.098.475.171.29.075.607.074.333 0 .508-.119a.363.363 0 0 0 .009-.617q-.167-.126-.558-.246-.537-.178-.866-.465a.91.91 0 0 1-.33-.718q0-.506.44-.847.44-.342 1.204-.343.366 0 .64.06.272.06.467.141l-.22.722a3 3 0 0 0-.358-.127 2 2 0 0 0-.545-.067q-.319 0-.472.115-.155.116-.155.272 0 .186.187.297t.61.26q.578.195.851.48a1 1 0 0 1 .272.71q0 .499-.427.864-.426.364-1.314.364-.374 0-.708-.078a2.7 2.7 0 0 1-.52-.167zM6.54 11.636V8.237H5.273v-.692h3.394v.692H7.402v3.4z" clip-rule="evenodd"/></svg>
